build/svg/cmd/sc_imagecontrol.svg

<?xml version="1.0" encoding="UTF-8" standalone="no"?>
<svg
   xmlns:dc="http://purl.org/dc/elements/1.1/"
   xmlns:cc="http://creativecommons.org/ns#"
   xmlns:rdf="http://www.w3.org/1999/02/22-rdf-syntax-ns#"
   xmlns:svg="http://www.w3.org/2000/svg"
   xmlns="http://www.w3.org/2000/svg"
   xmlns:sodipodi="http://sodipodi.sourceforge.net/DTD/sodipodi-0.dtd"
   xmlns:inkscape="http://www.inkscape.org/namespaces/inkscape"
   viewBox="0 0 16 16"
   version="1.1"
   id="svg4"
   sodipodi:docname="sc_imagecontrol.svg"
   inkscape:version="0.92.5 (2060ec1f9f, 2020-04-08)"
   inkscape:export-filename="/home/jupiter007/Libreoffice yaru theme fullcolor/build/cmd/sc_imagecontrol.png"
   inkscape:export-xdpi="96"
   inkscape:export-ydpi="96"><metadata
   id="metadata10">
  <rdf:RDF>
    <cc:Work
       rdf:about="">
      <dc:format>image/svg+xml</dc:format>
      <dc:type
         rdf:resource="http://purl.org/dc/dcmitype/StillImage" />
    </cc:Work>
  </rdf:RDF>
</metadata>
<defs
   id="defs8" />
<sodipodi:namedview
   pagecolor="#ffffff"
   bordercolor="#666666"
   borderopacity="1"
   objecttolerance="10"
   gridtolerance="10"
   guidetolerance="10"
   inkscape:pageopacity="0"
   inkscape:pageshadow="2"
   inkscape:window-width="1920"
   inkscape:window-height="1011"
   id="namedview6"
   showgrid="false"
   inkscape:zoom="14.75"
   inkscape:cx="0.44067797"
   inkscape:cy="8"
   inkscape:window-x="0"
   inkscape:window-y="32"
   inkscape:window-maximized="1"
   inkscape:current-layer="svg4" />
/&gt;<path
   sodipodi:nodetypes="cccscsccccccccscscccccc"
   inkscape:connector-curvature="0"
   id="path4237-1"
   d="m 4.994116,1.9997086 c -1.2582,0.0145 -2.178891,-0.030604 -2.931641,0.3847656 -0.37637,0.20766 -0.673231,0.5593869 -0.837891,0.9980469 -0.16467,0.43867 -0.224609,0.9595875 -0.224609,1.6171875 v 1.488281 4.5123014 c 0,0.65761 0.0599,1.178577 0.224609,1.617188 0.16468,0.438611 0.461531,0.788524 0.837891,0.996093 0.75272,0.41513 1.673541,0.371649 2.9316411,0.386719 h 0.002 6.0058589 0.0039 c 1.25819,-0.0145 2.178891,0.0306 2.931641,-0.384766 0.37637,-0.20766 0.673221,-0.559386 0.837891,-0.998046 0.164539,-0.438671 0.224618,-0.959578 0.224618,-1.617188 V 6.4665056 4.9997086 c 0,-0.6576 -0.0599,-1.1785775 -0.224609,-1.6171875 -0.16468,-0.4386 -0.461531,-0.7885338 -0.837891,-0.9960937 -0.75277,-0.41513 -1.673601,-0.3716388 -2.931691,-0.3867188 h -0.002 -6.005859 z"
   style="font-style:normal;font-variant:normal;font-weight:normal;font-stretch:normal;font-size:15px;line-height:125%;font-family:Ubuntu;-inkscape-font-specification:Ubuntu;text-align:center;letter-spacing:0px;word-spacing:0px;writing-mode:lr-tb;text-anchor:middle;display:inline;opacity:0.6;fill:#000000;fill-opacity:1;stroke:none;stroke-width:0.99980211" />
<path
   inkscape:connector-curvature="0"
   id="path1993"
   d="M 7.983344,3.0268934 C 6.426763,3.0376894 4.873354,3.0151414 3.323403,3.0656684 2.862174,3.1083364 2.307215,3.2720878 2.168063,3.7756352 1.949069,4.4109816 2.059649,5.1094224 2.022267,5.7575595 c -0.0078,2.2970841 -0.02297,3.596428 0.02152,5.8857795 0.0391,0.461929 0.202551,1.012666 0.698756,1.163666 0.632456,0.225082 1.284144,0.12274 1.935974,0.154298 1.4242351,0.0068 2.850563,0.01102 4.2764202,0.01131 1.7045308,3.5e-4 1.4083878,-0.005 3.1071898,-0.01851 0.511911,-0.01201 1.183699,0.01993 1.584745,-0.405191 0.421097,-0.539783 0.287073,-1.268021 0.322745,-1.903787 0.01187,-2.4443224 0.02769,-3.9110944 -0.0219,-6.3567939 C 13.898441,3.8862908 13.777725,3.425379 13.372578,3.2438559 12.704409,2.9497585 11.946373,3.075837 11.246657,3.0382832 9.4922502,3.0264806 9.7377832,3.0257988 7.983344,3.0268934 Z"
   style="opacity:1;vector-effect:none;fill:#d85eca;fill-opacity:1;stroke:none;stroke-width:1;stroke-linecap:round;stroke-linejoin:bevel;stroke-miterlimit:4;stroke-dasharray:none;stroke-dashoffset:0;stroke-opacity:1"
   sodipodi:nodetypes="cccccccsccccccc" />
<path
   style="color:#000000;display:inline;overflow:visible;visibility:visible;opacity:1;fill:#ffffff;fill-opacity:1;fill-rule:nonzero;stroke:none;stroke-width:18.28524208;marker:none;enable-background:accumulate"
   d="m 5.994116,6.9997086 -2,3.9999994 h 8 L 9.4833442,7.9997086 7.983344,9.9997085 Z"
   id="path1099"
   inkscape:connector-curvature="0"
   sodipodi:nodetypes="cccccc" />
<path
   style="opacity:1;vector-effect:none;fill:#ffffff;fill-opacity:1;stroke:none;stroke-width:1.88642752;stroke-linecap:round;stroke-linejoin:bevel;stroke-miterlimit:4;stroke-dasharray:none;stroke-dashoffset:0;stroke-opacity:1"
   id="path3397"
   sodipodi:type="arc"
   sodipodi:cx="9.9392986"
   sodipodi:cy="6.0480204"
   sodipodi:rx="0.94321376"
   sodipodi:ry="0.94321376"
   sodipodi:start="6.2325882"
   sodipodi:end="6.2319424"
   sodipodi:open="true"
   d="M 10.881305,6.0003168 A 0.94321376,0.94321376 0 0 1 9.9871542,6.9900193 0.94321376,0.94321376 0 0 1 8.9973074,6.0960281 0.94321376,0.94321376 0 0 1 9.8911388,5.1060369 0.94321376,0.94321376 0 0 1 10.881274,5.9997085" />
<g
   style="display:inline;stroke-width:27.20000267;enable-background:new"
   transform="matrix(0.03808017,0.02198561,-0.02384508,0.04130087,-6.4307941,-14.963289)"
   id="g1151"
   inkscape:transform-center-x="1.779661"
   inkscape:transform-center-y="1.1694915">
  <path
     style="fill:#fec589;fill-opacity:1;stroke:none;stroke-width:27.20000267"
     d="m 688.00003,319.35584 -32,81.13762 -31.99999,-81.13762 v -11.06422 h 63.99999 z"
     id="path1145"
     inkscape:connector-curvature="0" />
  <path
     style="color:#000000;display:inline;overflow:visible;visibility:visible;fill:#5d5d5d;fill-opacity:1;fill-rule:nonzero;stroke:none;stroke-width:27.20000267;marker:none;enable-background:accumulate"
     d="m 645.81253,374.67694 10.1875,25.81651 10.1875,-25.81651 c 0.0102,0.17481 -20.375,0 -20.375,0 z"
     id="path1147"
     inkscape:connector-curvature="0"
     sodipodi:nodetypes="cccc" />
  <path
     style="fill:#2f5fdd;fill-opacity:1;stroke:none;stroke-width:27.20000267"
     d="m 624.00004,319.35583 c 0,0 65.02041,1.58617 63.99999,0 V 127.90048 h -63.99999 z"
     id="path1149"
     inkscape:connector-curvature="0"
     sodipodi:nodetypes="ccccc" />
</g>
</svg>

<svg xmlns="http://www.w3.org/2000/svg" viewBox="0 0 16 16">/&gt;<path d="M4.994 2c-1.258.014-2.179-.03-2.932.384a1.88 1.88 0 00-.837.999C1.06 3.82 1 4.343 1 5v6c0 .658.06 1.179.225 1.617.164.44.461.789.837.997.753.415 1.674.371 2.932.386h6.012c1.258-.014 2.179.03 2.932-.384a1.88 1.88 0 00.837-.999c.165-.438.225-.96.225-1.617V5c0-.658-.06-1.179-.225-1.617a1.875 1.875 0 00-.837-.997c-.753-.415-1.674-.371-2.932-.386H4.998z" style="line-height:125%;-inkscape-font-specification:Ubuntu;text-align:center" font-weight="400" font-size="15" font-family="Ubuntu" letter-spacing="0" word-spacing="0" text-anchor="middle" opacity=".6"/><path d="M7.983 3.027c-1.556.01-3.11-.012-4.66.039-.46.042-1.016.206-1.155.71-.219.635-.108 1.333-.146 1.982-.008 2.297-.023 3.596.022 5.885.039.462.202 1.013.699 1.164.632.225 1.284.123 1.936.154 1.424.007 2.85.011 4.276.012 1.704 0 1.408-.005 3.107-.019.512-.012 1.184.02 1.585-.405.421-.54.287-1.268.323-1.904.011-2.444.027-3.911-.022-6.357-.05-.402-.17-.863-.575-1.044-.669-.294-1.427-.168-2.126-.206-1.755-.012-1.51-.012-3.264-.011z" fill="#d85eca"/><path style="marker:none" d="M5.994 7l-2 4h8l-2.51-3-1.5 2z" color="#000" overflow="visible" fill="#fff"/><path d="M10.881 6a.943.943 0 01-.894.99.943.943 0 01-.99-.894.943.943 0 01.894-.99.943.943 0 01.99.894" fill="#fff"/><g stroke-width="27.2"><path d="M12.153 13.352L9 16l.716-4.055.264-.457 2.437 1.408z" fill="#fec589"/><path style="marker:none" d="M9.228 14.71L9 16l1.004-.842c-.004.007-.776-.448-.776-.448z" color="#000" overflow="visible" fill="#5d5d5d"/><path d="M9.716 11.945s2.438 1.495 2.437 1.407l4.566-7.907-2.438-1.407z" fill="#2f5fdd"/></g></svg>
